X:202
T:Duncan Davidsen
O:No 202 Page 99 William Clarke of Feltwell
M:4/4
L:1/8
N:The title is written in a different hand from all the other titles seen so far.
N:The name John Ganstead is written twice after this tune.
K:D
DFAB (AF)Ac|DFAB AFE2|DFAB AFAg|(ed)efd4::fddf gfed|dAeA cAeA|fddf gfed|cdefd4::f2f2(gf)ed|cdefd4:|

